<?xml version="1.0" encoding="UTF-8"?>
<map version="1.10" tiledversion="1.12.2" orientation="orthogonal" renderorder="right-down" width="40" height="23" tilewidth="16" tileheight="16" infinite="0" nextlayerid="7" nextobjectid="104">
 <properties>
  <property name="BackgroundColor" value="JungleBackground"/>
 </properties>
 <tileset firstgid="1" source="TinkerGame.tsx"/>
 <tileset firstgid="243" source="TileSetTinker.tsx"/>
 <layer id="1" name="Background" width="40" height="23">
  <properties>
   <property name="BackgroundColor" value="JungleBackground"/>
  </properties>
  <data encoding="csv">
24,24,24,24,24,24,24,24,24,24,24,24,24,24,24,24,24,24,24,24,24,24,24,24,24,24,24,24,24,24,24,24,24,24,24,24,24,24,24,24,
24,24,3221225587,134,134,134,134,134,134,134,134,134,134,134,134,134,134,134,134,134,134,134,134,134,134,134,134,134,134,134,134,134,134,134,134,134,134,134,1073741939,24,
24,24,113,0,0,0,0,0,0,0,0,0,0,263,264,264,264,264,264,264,264,264,264,265,0,0,0,0,0,0,0,0,0,0,0,0,0,0,111,24,
24,24,113,0,0,0,0,0,0,0,0,0,0,0,0,0,0,0,0,0,0,0,0,0,0,0,0,0,0,0,0,0,0,0,0,0,0,0,111,24,
24,24,113,0,0,0,0,0,0,0,0,0,0,0,0,0,0,0,0,0,0,0,0,0,0,0,0,0,0,0,0,0,0,0,0,0,0,0,111,24,
24,24,113,243,244,244,244,244,244,244,244,244,245,0,0,0,0,0,0,0,0,0,0,0,0,0,0,0,0,0,0,0,0,0,0,0,0,0,111,24,
24,24,113,251,252,252,252,252,252,252,252,252,253,263,264,264,264,264,264,264,264,264,264,265,0,0,0,0,0,0,0,0,0,0,0,0,0,0,111,24,
24,24,113,259,260,260,260,260,260,260,260,260,261,271,0,0,0,0,0,0,0,0,0,271,0,247,248,249,0,0,0,0,0,0,0,0,0,0,111,24,
24,24,113,272,273,263,264,264,264,264,264,264,265,0,0,0,0,0,0,0,0,0,0,0,0,0,0,0,0,0,0,0,0,0,0,0,0,0,111,24,
24,24,113,280,281,0,0,0,0,0,0,0,0,0,0,0,0,0,0,0,0,0,0,0,0,0,0,0,0,247,248,249,0,0,0,0,0,0,111,24,
24,24,113,0,0,0,0,0,0,0,0,0,0,0,0,0,0,0,0,0,0,0,0,0,0,0,0,0,0,0,0,0,0,0,0,0,0,0,111,24,
24,24,113,0,0,0,0,0,0,0,0,0,0,0,0,0,0,0,0,0,0,0,0,0,0,0,0,0,0,0,0,0,0,0,0,247,248,249,111,24,
24,24,113,0,0,0,0,0,0,0,0,0,0,0,0,0,0,0,0,0,0,0,0,0,0,0,0,0,0,0,0,0,0,0,0,0,0,0,111,24,
24,24,113,0,0,0,0,0,0,0,0,0,0,0,0,0,0,0,0,0,0,0,0,0,0,0,243,244,244,244,244,244,244,244,244,244,244,245,111,24,
24,24,113,0,247,249,0,0,0,255,2147483903,0,0,0,0,0,271,0,0,0,271,0,0,0,271,0,259,260,260,260,260,260,260,260,260,260,260,261,111,24,
24,24,113,0,0,0,0,0,0,0,0,0,0,0,0,0,0,0,0,0,0,0,0,0,0,0,0,0,0,0,0,0,0,0,0,0,0,0,111,24,
24,24,113,0,0,0,0,0,0,0,0,0,0,0,0,0,0,0,0,0,0,0,0,0,0,0,0,0,0,0,0,0,0,0,0,0,0,0,111,24,
24,24,113,0,0,0,0,0,0,0,0,0,0,0,0,0,0,0,0,0,0,0,0,0,0,0,0,0,0,0,0,0,0,0,0,0,0,0,111,24,
24,24,113,0,0,255,256,2147483903,0,0,0,0,0,0,0,0,0,0,0,0,0,0,0,0,0,247,249,0,0,0,0,0,0,0,0,0,0,0,111,24,
24,24,113,0,0,0,0,0,0,0,0,0,0,271,0,289,0,0,0,263,265,0,0,0,0,0,0,0,0,0,0,0,243,244,244,244,244,245,111,24,
24,24,113,0,0,0,0,0,0,0,0,0,0,0,0,0,0,0,0,0,0,0,0,0,0,0,0,0,0,0,0,0,251,260,260,260,260,261,111,24,
24,24,2147483763,90,90,90,90,90,90,90,90,90,90,90,90,90,90,90,90,90,90,90,90,90,90,90,90,90,90,90,90,90,90,90,90,90,90,90,115,24,
24,24,24,24,24,24,24,24,24,24,24,24,24,24,24,24,24,24,24,24,24,24,24,24,24,24,24,24,24,24,24,24,24,24,24,24,24,24,24,24
</data>
 </layer>
 <objectgroup id="5" name="Spawnpoints">
  <object id="3" name="Player" type="Player" x="48" y="48" width="31.3333" height="32"/>
  <object id="35" name="Bananas" type="Fruit" x="432" y="176" width="32" height="32"/>
  <object id="36" name="Cherries" type="Fruit" x="464" y="112" width="32" height="32"/>
  <object id="37" name="Apple" type="Fruit" x="576" y="144" width="32" height="32"/>
  <object id="38" name="Cherries" type="Fruit" x="416" y="80" width="32" height="32"/>
  <object id="39" name="Orange" type="Fruit" x="160" y="48" width="32" height="32"/>
  <object id="40" name="Kiwi" type="Fruit" x="128" y="48" width="32" height="32"/>
  <object id="41" name="Strawberry" type="Fruit" x="64" y="192" width="32" height="32"/>
  <object id="42" name="Pineapple" type="Fruit" x="80" y="256" width="32" height="32"/>
  <object id="43" name="Orange" type="Fruit" x="144" y="192" width="32" height="32"/>
  <object id="44" type="Saw" x="448" y="320" width="32" height="32">
   <properties>
    <property name="isVertical" type="bool" value="false"/>
    <property name="offNeg" type="float" value="0"/>
    <property name="offPos" type="float" value="0"/>
   </properties>
  </object>
  <object id="45" type="Saw" x="288" y="64" width="32" height="32">
   <properties>
    <property name="isVertical" type="bool" value="true"/>
    <property name="offNeg" type="float" value="4"/>
    <property name="offPos" type="float" value="3"/>
   </properties>
  </object>
  <object id="53" type="Checkpoint" x="544" y="240" width="64" height="64"/>
  <object id="62" type="Portal" x="528" y="240" width="16" height="64">
   <properties>
    <property name="isClosed" type="bool" value="true"/>
   </properties>
  </object>
  <object id="67" type="Saw" x="224" y="64" width="32" height="32">
   <properties>
    <property name="isVertical" type="bool" value="true"/>
    <property name="offNeg" type="float" value="4"/>
    <property name="offPos" type="float" value="3"/>
   </properties>
  </object>
  <object id="68" type="Saw" x="352" y="64" width="32" height="32">
   <properties>
    <property name="isVertical" type="bool" value="true"/>
    <property name="offNeg" type="float" value="4"/>
    <property name="offPos" type="float" value="3"/>
   </properties>
  </object>
  <object id="69" type="Saw" x="416" y="320" width="32" height="32">
   <properties>
    <property name="isVertical" type="bool" value="false"/>
    <property name="offNeg" type="float" value="0"/>
    <property name="offPos" type="float" value="0"/>
   </properties>
  </object>
  <object id="70" type="Saw" x="480" y="320" width="32" height="32">
   <properties>
    <property name="isVertical" type="bool" value="false"/>
    <property name="offNeg" type="float" value="0"/>
    <property name="offPos" type="float" value="0"/>
   </properties>
  </object>
  <object id="71" type="Saw" x="384" y="320" width="32" height="32">
   <properties>
    <property name="isVertical" type="bool" value="false"/>
    <property name="offNeg" type="float" value="0"/>
    <property name="offPos" type="float" value="0"/>
   </properties>
  </object>
  <object id="72" type="Saw" x="352" y="320" width="32" height="32">
   <properties>
    <property name="isVertical" type="bool" value="false"/>
    <property name="offNeg" type="float" value="0"/>
    <property name="offPos" type="float" value="0"/>
   </properties>
  </object>
  <object id="73" type="Saw" x="320" y="320" width="32" height="32">
   <properties>
    <property name="isVertical" type="bool" value="false"/>
    <property name="offNeg" type="float" value="0"/>
    <property name="offPos" type="float" value="0"/>
   </properties>
  </object>
  <object id="74" type="Saw" x="288" y="320" width="32" height="32">
   <properties>
    <property name="isVertical" type="bool" value="false"/>
    <property name="offNeg" type="float" value="0"/>
    <property name="offPos" type="float" value="0"/>
   </properties>
  </object>
  <object id="75" type="Saw" x="256" y="320" width="32" height="32">
   <properties>
    <property name="isVertical" type="bool" value="false"/>
    <property name="offNeg" type="float" value="0"/>
    <property name="offPos" type="float" value="0"/>
   </properties>
  </object>
  <object id="76" type="Saw" x="224" y="320" width="32" height="32">
   <properties>
    <property name="isVertical" type="bool" value="false"/>
    <property name="offNeg" type="float" value="0"/>
    <property name="offPos" type="float" value="0"/>
   </properties>
  </object>
  <object id="77" type="Saw" x="192" y="320" width="32" height="32">
   <properties>
    <property name="isVertical" type="bool" value="false"/>
    <property name="offNeg" type="float" value="0"/>
    <property name="offPos" type="float" value="0"/>
   </properties>
  </object>
  <object id="78" type="Saw" x="160" y="320" width="32" height="32">
   <properties>
    <property name="isVertical" type="bool" value="false"/>
    <property name="offNeg" type="float" value="0"/>
    <property name="offPos" type="float" value="0"/>
   </properties>
  </object>
  <object id="79" type="Saw" x="128" y="320" width="32" height="32">
   <properties>
    <property name="isVertical" type="bool" value="false"/>
    <property name="offNeg" type="float" value="0"/>
    <property name="offPos" type="float" value="0"/>
   </properties>
  </object>
  <object id="80" type="Saw" x="96" y="320" width="32" height="32">
   <properties>
    <property name="isVertical" type="bool" value="false"/>
    <property name="offNeg" type="float" value="0"/>
    <property name="offPos" type="float" value="0"/>
   </properties>
  </object>
  <object id="81" type="Saw" x="64" y="320" width="32" height="32">
   <properties>
    <property name="isVertical" type="bool" value="false"/>
    <property name="offNeg" type="float" value="0"/>
    <property name="offPos" type="float" value="0"/>
   </properties>
  </object>
  <object id="82" name="Kiwi" type="Fruit" x="304" y="272" width="32" height="32"/>
  <object id="83" type="Saw" x="304" y="208" width="32" height="32">
   <properties>
    <property name="isVertical" type="bool" value="false"/>
    <property name="offNeg" type="float" value="4"/>
    <property name="offPos" type="float" value="4"/>
   </properties>
  </object>
 </objectgroup>
 <objectgroup id="6" name="Collisions">
  <object id="5" x="32" y="16" width="16" height="336"/>
  <object id="6" x="208" y="32" width="176" height="16"/>
  <object id="8" x="608" y="16" width="16" height="320"/>
  <object id="9" x="48" y="336" width="576" height="16"/>
  <object id="31" type="Platform" x="464" y="144" width="48" height="16"/>
  <object id="47" x="48" y="80" width="160" height="48"/>
  <object id="56" x="512" y="304" width="96" height="32"/>
  <object id="57" x="416" y="208" width="192" height="32"/>
  <object id="59" x="320" y="224" width="16" height="16"/>
  <object id="60" x="384" y="224" width="16" height="16"/>
  <object id="84" x="48" y="128" width="160" height="16"/>
  <object id="85" x="48" y="144" width="32" height="16"/>
  <object id="86" x="48" y="16" width="576" height="16"/>
  <object id="87" x="208" y="96" width="176" height="16"/>
  <object id="88" type="Platform" x="400" y="112" width="48" height="16"/>
  <object id="89" type="Platform" x="560" y="176" width="48" height="16"/>
  <object id="90" type="Platform" x="400" y="288" width="32" height="16"/>
  <object id="91" type="Platform" x="64" y="224" width="32" height="16"/>
  <object id="92" type="Platform" x="144" y="224" width="32" height="16"/>
  <object id="93" type="Platform" x="80" y="288" width="48" height="16"/>
  <object id="94" x="256" y="224" width="16" height="16"/>
  <object id="95" x="208" y="304" width="16" height="16"/>
  <object id="96" x="304" y="304" width="32" height="16"/>
  <object id="101" x="208" y="112" width="16" height="16"/>
  <object id="102" x="368" y="112" width="16" height="16"/>
  <object id="103" x="400" y="224" width="16" height="16"/>
 </objectgroup>
</map>
